X:1
T:Title
%%score { ( 1 5 6 ) | ( 2 3 4 ) }
L:1/8
Q:1/4=100
M:4/4
K:G
V:1 treble nm="Grand Piano"
V:5 treble 
V:6 treble 
V:2 bass 
V:3 bass 
V:4 bass 
V:1
 B2 B>B B2 A>G | [CEGA]2 G2 G2 z2 | z4 z G3 | .B2 D2 Ad[dfa]d' | B2 B>B B2 A>G | A2 G2 A2 z E | %6
w: Charles~H.~Gabriel * * * * *||||||
 EE z E B A2 A | .A2 F2 Ad[dfa][fad'] | [ce]2 [Bd]>[Bd] [Ac]2 A>A | [Bd]2 [Bd]>[Ac] z2 D2 | %10
w: ||||
 B2 B>F A2 G>F | [G,A,]->[G,A,F] G>A z2 ^D2 | c2 c>c c2 B>A | z4 d4 | z2 .[Ac]2 G .B3 | A4 z4 | %16
w: ||||||
 z d3 z d3 | z B3- B2 z2 | [GB]>[FB] [GB]>[AB] [GB]2 [EB]2 | z4 [Fc]4 | z4 z d3 | z d3- d2 z2 | %22
w: ||||||
 [Ec]>[Dc] [Dc]>[Ec] [Dc]2 [cd]2 | d4 z4 | [Bd]>[Bd] [Bd]>[Bd] [GB]2 [Bd]2 | %25
w: |||
[M:5/4] [Ae]>[Ae] [Be]>[Be] [ce]3 [_Be]3 |[M:4/4] [Bd]>[Bd] [Be]>[Bd] [Bd]2 .[GB]>[GB] | %27
w: ||
 [Ac]4 [GB]4 |] %28
w: |
V:2
 [G,,G,]2 [B,DG]2 [G,,G,]2 [B,DG]2 | z2 [CE]2 E4 | [G,,,G,,]2 [B,D]2 [G,,G,]2 [B,D]2 | %3
 z4[K:treble] [DF][FA] z [fa] | [G,,G,]2 [B,DG]2 [G,,G,]2 [B,D]2 | z2 [CE]2 [CE]2 .[CE]2 | %6
 [A,,,A,,]2 .[A,^CE]2 [A,,,A,,]2 z2 | z2[K:treble] [A,D]2 [DF][FA][K:bass] [F,A,D]2 | %8
 [D,,D,]2 [F,A,D]2 [D,,C,]2 [F,A,DF]2 | [G,,G,]2 [G,B,D]2 [G,,G,]2 [G,B,]2 | %10
 z2 [A,B,^D]2 z2 [G,B,E]2 | [C,,C,]2 [C,,C,]2 [F,B,^D]2 [F,B,]2 | %12
 [A,,,A,,]2 [CDFA]2 [D,,D,]2 [CDFA]2 | z2[K:treble] [B,DG]2 [B,DG]2[K:bass] [B,D]2 | %14
 [B,,,B,,]2 [C,,C,]2 [D,,D,]2 [D,,D,]2 | z2 [A,C]2 [G,,G,]2 z2 | %16
 z[K:treble] B3[K:bass] z[K:treble] B3[K:bass] | z D3- D2 z2 | %18
 [G,,G,]2 [G,,D,]2 [G,,G,]2 [G,,D,]2 | [A,,F,]2 D,2 [A,,D,]2 z2 | z4 z[K:treble] c3[K:bass] | %21
 z[K:treble] F3- F2[K:bass] z2 | [A,,F,]2 [D,F,]2 [A,,F,]2 [D,F,]2 | %23
 [G,,G,]>[G,,G,] [B,,G,]>[D,G,] [G,,G,]4 | [G,,G,]>[G,,G,] [G,,G,]>[G,,G,] [G,,D,]2 [G,,G,]2 | %25
[M:5/4] [C,G,]>[C,G,] [B,,^G,]>[B,,G,] [A,,A,]3 [^C,=G,]3 | %26
[M:4/4] [D,G,]>[D,G,] [D,G,]>[D,G,] [D,G,]2 .D,>D, | [D,F,]4 [G,,D,]4 |] %28
V:3
 x8 | z4 C2 z2 | x8 | [D,,D,]6[K:treble] [D,F,C]2 | x8 | [C,,C,]6 z2 | x8 | %7
 [D,,D,]6[K:treble][K:bass] z2 | x8 | x8 | [B,,,B,,]4 [E,,E,]4 | z4 [B,,,B,,]4 | x8 | %13
 [G,,G,]6[K:treble][K:bass] z2 | x8 | [D,,D,]4 z4 | %16
 [G,,G,]2[K:treble][K:bass] z2 [G,,G,]2[K:treble][K:bass] z2 | [G,,G,]2 z2 z4 | x8 | x8 | %20
 [A,,F,]2 D,2 z2[K:treble][K:bass] D,2 | z2[K:treble] D,2 z2[K:bass] [D,A,]2 | x8 | x8 | x8 | %25
[M:5/4] x10 |[M:4/4] x8 | x8 |] %28
V:4
 x8 | [C,,C,]6 z2 | x8 | x4[K:treble] x4 | x8 | x8 | x8 | x2[K:treble] x4[K:bass] x2 | x8 | x8 | %10
 x8 | x8 | x8 | x2[K:treble] x4[K:bass] x2 | x8 | x8 | %16
 z2[K:treble][K:bass] G,,2 z2[K:treble][K:bass] G,,2 | z2 G,,2 G,,2 [G,,D,]2 | x8 | x8 | %20
 z4 [A,,F,]2[K:treble][K:bass] z2 | [A,,F,]2[K:treble] z2 z4[K:bass] | x8 | x8 | x8 |[M:5/4] x10 | %26
[M:4/4] x8 | x8 |] %28
V:5
 x8 | x8 | DD G2 .G2 F2 | z A3 z4 | x8 | z4 z2 G2 | z2 G2 z4 | z d3- d z z2 | x8 | z4 [GB]4 | x8 | %11
 E2 [G,_B,E]2 B4 | x8 | B2 B>c z2 z d | [D=FGd]2 [CE]-[CEA] [B,D]2 z B | %15
 [A,CDF]2 [DF]2 [B,DG]2 z2 | .[Bd]2 D,2 .[Bd]2 D,2 | .[Bd]2 D,2 G,2 [EB]>[FB] | x8 | %19
 [Dc]2 [Ec]2 z2 D,2 | [cd] [cd]3 .[cd]2 F,2 | .[cd]2 A,2 A,2 [Fd]>[Fd] | x8 | B>B B>B [Bd]4 | x8 | %25
[M:5/4] x10 |[M:4/4] x8 | x8 |] %28
V:6
 x8 | x8 | x8 | x8 | x8 | x8 | x8 | x8 | x8 | x8 | x8 | x8 | x8 | z4 z2 G2 | z4 z2 [B,DG]2 | x8 | %16
 x8 | x8 | x8 | x8 | x8 | x8 | x8 | x8 | x8 |[M:5/4] x10 |[M:4/4] x8 | x8 |] %28

